public/sample/figure-line-04.svg

<?xml version="1.0" encoding="utf-8"?>
<!-- Generator: Adobe Illustrator 27.1.0, SVG Export Plug-In . SVG Version: 6.00 Build 0)  -->
<svg version="1.1" id="Layer_1" xmlns:ev="http://www.w3.org/2001/xml-events"
	 xmlns="http://www.w3.org/2000/svg" xmlns:xlink="http://www.w3.org/1999/xlink" x="0px" y="0px" viewBox="0 0 1285 1541"
	 style="enable-background:new 0 0 1285 1541;" xml:space="preserve">
<style type="text/css">
	.st0{fill:none;stroke:#000000;}
</style>
<path class="st0" d="M522,1214v-4v-1v-7v-1v-7v-1v-7v-1v-7v-1v-6v-1"/>
<path class="st0" d="M611,1174l1,2v1l-3,6v1l-4,8v1l-3,4v1l-3,6l-1,1l-4,6l-1,1l-5,5l-1,1l-5,5l-1,1l-7,4l-1,1l-6,2h-1l-5,1h-1h-5
	h-1h-5h-1l-5-2h-1l-5-2h-1l-5-3h-1"/>
<path class="st0" d="M522,1252l1-3v-1v-2v-1v-5v-1v-5v-1v-6v-1"/>
<path class="st0" d="M526,1223l-2-5l-1-1"/>
<path class="st0" d="M522,1329v-3v-1v-5v-1v-5v-1v-5v-1v-5v-1v-5v-1v-5v-1v-5v-1v-6v-1v-5v-1v-5v-1v-5v-1"/>
<path class="st0" d="M619,1255l-3-3h-1h-6h-1h-5h-1h-5h-1h-5h-1h-5h-1h-5h-1h-5h-1h-5h-1h-5h-1h-5h-1h-5h-1h-5h-1h-5h-1h-5h-1h-5h-1
	"/>
<path class="st0" d="M426,1252h3h1"/>
<path class="st0" d="M522,1252l-3,1h-1h-5h-1h-5h-1h-5h-1h-5h-1h-5h-1h-5h-1h-5h-1h-5h-1h-5h-1h-5h-1h-5h-1h-5h-1h-6h-1"/>
<path class="st0" d="M428,1279l-1-5v-1l2-5v-1l2-4v-1l2-6l1-1"/>
<path class="st0" d="M435,1253l1-4v-1l1-3l1-1l3-6l1-1l3-5l1-1l1-2l1-1l3-4l1-1l5-5l1-1l9-6l1-1l4-2h1l5-2h1l9-1h1l4,1h1l5,1h1l8,3
	h1l9,4l1,1"/>
<path class="st0" d="M1039,1222l-1-4v-1v-7v-1v-6v-1v-5v-1v-5v-1v-5v-1v-5v-1v-5v-1"/>
<path class="st0" d="M1039,1251v-1v-1v-7v-1l1-6v-1"/>
<path class="st0" d="M1117,1175v2v1v6v1l-1,6v1l-1,6v1l-1,6v1l-2,6v1l-2,6v1l-2,3l-1,1h-8l-1-1l-4-5l-1-1l-3-5v-1l-3-6l-1-1l-3-6
	l-1-1l-4-4l-1-1l-6-2h-1l-5,1l-1,1l-6,6l-1,1l-2,3l-1,2l-3,7v1l-3,7l-1,2"/>
<path class="st0" d="M1038,1230l3,2h1l4-6v-1"/>
<path class="st0" d="M1038,1230v-4v-1"/>
<path class="st0" d="M1044,1222l-3-1h-1"/>
<path class="st0" d="M961,1329l-2-3v-1l1-6v-1l1-6v-1v-6l1-1v-6l1-1l1-6v-1l2-6l1-1l2-2l1-1h7l1,1l3,3l1,1l4,7v1l5,9v1l7,8l1,1l6,2
	h1l7-2l1-1l6-8l1-1l4-9v-1l3-8v-1l2-5v-1l3-2l1-1"/>
<path class="st0" d="M1037,1329l1-4v-1v-6v-1v-7v-1v-6v-1v-7v-1v-6v-1v-7v-1"/>
<path class="st0" d="M1035,1274v-1v-1l1-5v-1l1-5v-1v-5v-1"/>
<path class="st0" d="M1128,1255l-3-3h-1h-4h-1h-9h-1h-9h-1h-9h-1h-9h-1h-5h-1h-4h-1h-8h-1h-9h-1h-8h-1"/>
<path class="st0" d="M1039,1251l-5,1h-1h-3h-1h-9h-1h-5h-1h-4h-1h-9h-1h-5h-1h-4h-1h-9h-1h-9h-1"/>
<path class="st0" d="M868,1250l-5,2h-1h-9h-1h-6h-1h-3h-1"/>
<path class="st0" d="M838,1252l-1,7l-1,1l-1,4l-1,1l-5,5h-1h-7l-1-1l-6-3l-1-1l-5-5l-1-1"/>
<path class="st0" d="M838,1252l-3-1h-1h-3h-1l-9-1h-1l-9,1h-1"/>
<path class="st0" d="M838,1252l1-2l1-1v-2v-1l1-6v-1l1-5v-1l1-5l1-1v-5l1-1l1-6v-1v-5l1-1v-5l1-1v-5v-1l1-6v-1l1-5v-1l1-5v-1"/>
<path class="st0" d="M788,1252v-2v-1v-7v-1v-8v-1v-8v-1v-8v-1v-7v-1v-8v-1v-7v-1v-8v-1v-7v-1"/>
<path class="st0" d="M803,1252h-2h-1l-9-1h-1"/>
<path class="st0" d="M787,1256l-1-1l1-1"/>
<path class="st0" d="M786,1330l2-3v-1v-4v-1v-9v-1v-7v-1v-6v-1v-6v-1v-6v-1v-6v-1v-6v-1v-6v-1"/>
<path class="st0" d="M788,1252l-7-1h-1h-9h-1h-9h-1h-8h-1h-6h-1h-6h-1h-6h-1"/>
<path class="st0" d="M787,1256l-2,1h-1l-4,3l-1,1l-2,3l-1,1l-4,7v1l-3,5v1l-3,6v1l-3,5v1l-2,6l-1,1l-3,5l-1,1l-4,4h-1l-5,1h-1l-4-2
	l-1-1l-3-4v-1l-3-8l-1-1l-2-8v-1l-2-7v-1l-1-8v-1l-2-8v-1"/>
<path class="st0" d="M727,1254l-1-4v-1v-7v-1l-1-8v-1l-1-8v-1l-1-8v-1l-1-7v-1l-1-8v-1l-1-7v-1v-7v-1"/>
<path class="st0" d="M727,1254l-2-2h-1h-6h-1"/>
<path class="st0" d="M891,824h-3h-1h-2h-1h-6h-1h-7h-1h-7h-1h-7h-1h-7h-1h-7h-1h-7h-1h-7h-1"/>
<path class="st0" d="M891,824l-1-3v-1l2-8v-1l2-7v-1l3-9v-1l3-9l1-1l2-9v-1l1-8v-1l1-3v-1"/>
<path class="st0" d="M984,824l-1-3v-1l-2-8v-1l-2-8l-1-1l-2-8v-1l-2-7l-1-1l-2-8v-1l-3-7v-1l-3-8l-1-1l-3-7v-1l-4-8l-1-1l-4-6l-1-1
	l-3-3l-1-1l-3-2l-1-1l-6-1h-1l-5,1l-1,1l-5,3l-1,1l-3,4l-1,1l-4,7l-1,1l-3,6v1l-3,4l-1,1"/>
<path class="st0" d="M904,877v-4v-1v-6v-1v-6v-1v-6v-1v-6v-1v-6v-1v-6v-1"/>
<path class="st0" d="M984,824h-3l-1,1h-2h-1h-5h-1h-4h-1h-7h-1h-6l-1,1l-7-1h-1h-6h-1h-7h-1h-6h-1h-7h-1h-6l-1,1"/>
<path class="st0" d="M905,827l-4-2h-1h-4h-1"/>
<path class="st0" d="M883,876l-3-5v-1l2-9v-1l2-9v-1l2-8v-1l2-5v-1l1-4v-1"/>
<path class="st0" d="M1018,826l-3-2h-1h-5h-1h-5h-1h-5h-1h-7h-1"/>
<path class="st0" d="M993,876v-5v-1l-2-9v-1l-2-9v-1l-2-8v-1l-1-5l-1-1v-4v-1"/>
<path class="st0" d="M905,758l-1-5v-1v-6v-1v-6v-1v-6v-1v-5v-1v-6v-1v-6v-1v-6v-1"/>
<path class="st0" d="M533,847h7h1h7h1h7h1h8h1h7h1h7h1h7h1h8h1h7h1h7h1"/>
<path class="st0" d="M711,844l-3,3h-1h-5h-1h-5h-1h-5h-1h-6h-1h-5h-1h-5h-1h-5h-1h-8h-1h-7h-1h-7h-1h-7h-1h-8h-1"/>
<path class="st0" d="M619,877l2-4v-1v-7v-1v-7v-1v-7v-1"/>
<path class="st0" d="M622,796l-1-4v-1v-3v-1v-6v-1v-5v-1v-6v-1v-5v-1v-6v-1v-5v-1v-6v-1v-5v-1v-6v-1v-5v-1v-6v-1"/>
<path class="st0" d="M620,806l1-5v-1"/>
<path class="st0" d="M660,718l1,4v1l-2,5v1l-2,4v1l-3,9l-1,1l-3,9l-1,1l-4,9v1l-5,9v1l-5,9l-1,1l-5,8l-1,1"/>
<path class="st0" d="M621,846v-6v-1v-7v-1v-8v-1v-7v-1v-6v-1"/>
<path class="st0" d="M620,806h-1h-1l-5,2l-1,1l-7,2l-1,1l-7,1h-1l-7-2h-1l-7-4l-1-1l-5-4l-1-2l-4-4l-1-1l-4-5v-1l-3-4l-1-1l-3-5v-1
	l-3-5l-1-1l-2-5l-1-1l-2-4v-1l-3-6v-1l-2-4v-1l-2-5l-1-1l-2-5v-1l-2-6l-1-1l-2-6v-1l-2-5v-1"/>
</svg>

<?xml version="1.0" encoding="utf-8" ?>
<svg baseProfile="full" height="1541px" version="1.1" width="1285px" xmlns="http://www.w3.org/2000/svg" xmlns:ev="http://www.w3.org/2001/xml-events" xmlns:xlink="http://www.w3.org/1999/xlink"><defs /><path d="M522,1214 L522,1210 L522,1209 L522,1202 L522,1201 L522,1194 L522,1193 L522,1186 L522,1185 L522,1178 L522,1177 L522,1171 L522,1170" fill="none" stroke="black" /><path d="M611,1174 L612,1176 L612,1177 L609,1183 L609,1184 L605,1192 L605,1193 L602,1197 L602,1198 L599,1204 L598,1205 L594,1211 L593,1212 L588,1217 L587,1218 L582,1223 L581,1224 L574,1228 L573,1229 L567,1231 L566,1231 L561,1232 L560,1232 L555,1232 L554,1232 L549,1232 L548,1232 L543,1230 L542,1230 L537,1228 L536,1228 L531,1225 L530,1225" fill="none" stroke="black" /><path d="M522,1252 L523,1249 L523,1248 L523,1246 L523,1245 L523,1240 L523,1239 L523,1234 L523,1233 L523,1227 L523,1226" fill="none" stroke="black" /><path d="M526,1223 L524,1218 L523,1217" fill="none" stroke="black" /><path d="M522,1329 L522,1326 L522,1325 L522,1320 L522,1319 L522,1314 L522,1313 L522,1308 L522,1307 L522,1302 L522,1301 L522,1296 L522,1295 L522,1290 L522,1289 L522,1284 L522,1283 L522,1277 L522,1276 L522,1271 L522,1270 L522,1265 L522,1264 L522,1259 L522,1258" fill="none" stroke="black" /><path d="M619,1255 L616,1252 L615,1252 L609,1252 L608,1252 L603,1252 L602,1252 L597,1252 L596,1252 L591,1252 L590,1252 L585,1252 L584,1252 L579,1252 L578,1252 L573,1252 L572,1252 L567,1252 L566,1252 L561,1252 L560,1252 L555,1252 L554,1252 L549,1252 L548,1252 L543,1252 L542,1252 L537,1252 L536,1252 L531,1252 L530,1252 L525,1252 L524,1252" fill="none" stroke="black" /><path d="M426,1252 L429,1252 L430,1252" fill="none" stroke="black" /><path d="M522,1252 L519,1253 L518,1253 L513,1253 L512,1253 L507,1253 L506,1253 L501,1253 L500,1253 L495,1253 L494,1253 L489,1253 L488,1253 L483,1253 L482,1253 L477,1253 L476,1253 L471,1253 L470,1253 L465,1253 L464,1253 L459,1253 L458,1253 L453,1253 L452,1253 L447,1253 L446,1253 L440,1253 L439,1253" fill="none" stroke="black" /><path d="M428,1279 L427,1274 L427,1273 L429,1268 L429,1267 L431,1263 L431,1262 L433,1256 L434,1255" fill="none" stroke="black" /><path d="M435,1253 L436,1249 L436,1248 L437,1245 L438,1244 L441,1238 L442,1237 L445,1232 L446,1231 L447,1229 L448,1228 L451,1224 L452,1223 L457,1218 L458,1217 L467,1211 L468,1210 L472,1208 L473,1208 L478,1206 L479,1206 L488,1205 L489,1205 L493,1206 L494,1206 L499,1207 L500,1207 L508,1210 L509,1210 L518,1214 L519,1215" fill="none" stroke="black" /><path d="M1039,1222 L1038,1218 L1038,1217 L1038,1210 L1038,1209 L1038,1203 L1038,1202 L1038,1197 L1038,1196 L1038,1191 L1038,1190 L1038,1185 L1038,1184 L1038,1179 L1038,1178 L1038,1173 L1038,1172" fill="none" stroke="black" /><path d="M1039,1251 L1039,1250 L1039,1249 L1039,1242 L1039,1241 L1040,1235 L1040,1234" fill="none" stroke="black" /><path d="M1117,1175 L1117,1177 L1117,1178 L1117,1184 L1117,1185 L1116,1191 L1116,1192 L1115,1198 L1115,1199 L1114,1205 L1114,1206 L1112,1212 L1112,1213 L1110,1219 L1110,1220 L1108,1223 L1107,1224 L1099,1224 L1098,1223 L1094,1218 L1093,1217 L1090,1212 L1090,1211 L1087,1205 L1086,1204 L1083,1198 L1082,1197 L1078,1193 L1077,1192 L1071,1190 L1070,1190 L1065,1191 L1064,1192 L1058,1198 L1057,1199 L1055,1202 L1054,1204 L1051,1211 L1051,1212 L1048,1219 L1047,1221" fill="none" stroke="black" /><path d="M1038,1230 L1041,1232 L1042,1232 L1046,1226 L1046,1225" fill="none" stroke="black" /><path d="M1038,1230 L1038,1226 L1038,1225" fill="none" stroke="black" /><path d="M1044,1222 L1041,1221 L1040,1221" fill="none" stroke="black" /><path d="M961,1329 L959,1326 L959,1325 L960,1319 L960,1318 L961,1312 L961,1311 L961,1305 L962,1304 L962,1298 L963,1297 L964,1291 L964,1290 L966,1284 L967,1283 L969,1281 L970,1280 L977,1280 L978,1281 L981,1284 L982,1285 L986,1292 L986,1293 L991,1302 L991,1303 L998,1311 L999,1312 L1005,1314 L1006,1314 L1013,1312 L1014,1311 L1020,1303 L1021,1302 L1025,1293 L1025,1292 L1028,1284 L1028,1283 L1030,1278 L1030,1277 L1033,1275 L1034,1274" fill="none" stroke="black" /><path d="M1037,1329 L1038,1325 L1038,1324 L1038,1318 L1038,1317 L1038,1310 L1038,1309 L1038,1303 L1038,1302 L1038,1295 L1038,1294 L1038,1288 L1038,1287 L1038,1280 L1038,1279" fill="none" stroke="black" /><path d="M1035,1274 L1035,1273 L1035,1272 L1036,1267 L1036,1266 L1037,1261 L1037,1260 L1037,1255 L1037,1254" fill="none" stroke="black" /><path d="M1128,1255 L1125,1252 L1124,1252 L1120,1252 L1119,1252 L1110,1252 L1109,1252 L1100,1252 L1099,1252 L1090,1252 L1089,1252 L1080,1252 L1079,1252 L1074,1252 L1073,1252 L1069,1252 L1068,1252 L1060,1252 L1059,1252 L1050,1252 L1049,1252 L1041,1252 L1040,1252" fill="none" stroke="black" /><path d="M1039,1251 L1034,1252 L1033,1252 L1030,1252 L1029,1252 L1020,1252 L1019,1252 L1014,1252 L1013,1252 L1009,1252 L1008,1252 L999,1252 L998,1252 L993,1252 L992,1252 L988,1252 L987,1252 L978,1252 L977,1252 L968,1252 L967,1252" fill="none" stroke="black" /><path d="M868,1250 L863,1252 L862,1252 L853,1252 L852,1252 L846,1252 L845,1252 L842,1252 L841,1252" fill="none" stroke="black" /><path d="M838,1252 L837,1259 L836,1260 L835,1264 L834,1265 L829,1270 L828,1270 L821,1270 L820,1269 L814,1266 L813,1265 L808,1260 L807,1259" fill="none" stroke="black" /><path d="M838,1252 L835,1251 L834,1251 L831,1251 L830,1251 L821,1250 L820,1250 L811,1251 L810,1251" fill="none" stroke="black" /><path d="M838,1252 L839,1250 L840,1249 L840,1247 L840,1246 L841,1240 L841,1239 L842,1234 L842,1233 L843,1228 L844,1227 L844,1222 L845,1221 L846,1215 L846,1214 L846,1209 L847,1208 L847,1203 L848,1202 L848,1197 L848,1196 L849,1190 L849,1189 L850,1184 L850,1183 L851,1178 L851,1177" fill="none" stroke="black" /><path d="M788,1252 L788,1250 L788,1249 L788,1242 L788,1241 L788,1233 L788,1232 L788,1224 L788,1223 L788,1215 L788,1214 L788,1207 L788,1206 L788,1198 L788,1197 L788,1190 L788,1189 L788,1181 L788,1180 L788,1173 L788,1172" fill="none" stroke="black" /><path d="M803,1252 L801,1252 L800,1252 L791,1251 L790,1251" fill="none" stroke="black" /><path d="M787,1256 L786,1255 L787,1254" fill="none" stroke="black" /><path d="M786,1330 L788,1327 L788,1326 L788,1322 L788,1321 L788,1312 L788,1311 L788,1304 L788,1303 L788,1297 L788,1296 L788,1290 L788,1289 L788,1283 L788,1282 L788,1276 L788,1275 L788,1269 L788,1268 L788,1262 L788,1261" fill="none" stroke="black" /><path d="M788,1252 L781,1251 L780,1251 L771,1251 L770,1251 L761,1251 L760,1251 L752,1251 L751,1251 L745,1251 L744,1251 L738,1251 L737,1251 L731,1251 L730,1251" fill="none" stroke="black" /><path d="M787,1256 L785,1257 L784,1257 L780,1260 L779,1261 L777,1264 L776,1265 L772,1272 L772,1273 L769,1278 L769,1279 L766,1285 L766,1286 L763,1291 L763,1292 L761,1298 L760,1299 L757,1304 L756,1305 L752,1309 L751,1309 L746,1310 L745,1310 L741,1308 L740,1307 L737,1303 L737,1302 L734,1294 L733,1293 L731,1285 L731,1284 L729,1277 L729,1276 L728,1268 L728,1267 L726,1259 L726,1258" fill="none" stroke="black" /><path d="M727,1254 L726,1250 L726,1249 L726,1242 L726,1241 L725,1233 L725,1232 L724,1224 L724,1223 L723,1215 L723,1214 L722,1207 L722,1206 L721,1198 L721,1197 L720,1190 L720,1189 L720,1182 L720,1181" fill="none" stroke="black" /><path d="M727,1254 L725,1252 L724,1252 L718,1252 L717,1252" fill="none" stroke="black" /><path d="M891,824 L888,824 L887,824 L885,824 L884,824 L878,824 L877,824 L870,824 L869,824 L862,824 L861,824 L854,824 L853,824 L846,824 L845,824 L838,824 L837,824 L830,824 L829,824 L822,824 L821,824" fill="none" stroke="black" /><path d="M891,824 L890,821 L890,820 L892,812 L892,811 L894,804 L894,803 L897,794 L897,793 L900,784 L901,783 L903,774 L903,773 L904,765 L904,764 L905,761 L905,760" fill="none" stroke="black" /><path d="M984,824 L983,821 L983,820 L981,812 L981,811 L979,803 L978,802 L976,794 L976,793 L974,786 L973,785 L971,777 L971,776 L968,769 L968,768 L965,760 L964,759 L961,752 L961,751 L957,743 L956,742 L952,736 L951,735 L948,732 L947,731 L944,729 L943,728 L937,727 L936,727 L931,728 L930,729 L925,732 L924,733 L921,737 L920,738 L916,745 L915,746 L912,752 L912,753 L909,757 L908,758" fill="none" stroke="black" /><path d="M904,877 L904,873 L904,872 L904,866 L904,865 L904,859 L904,858 L904,852 L904,851 L904,845 L904,844 L904,838 L904,837 L904,831 L904,830" fill="none" stroke="black" /><path d="M984,824 L981,824 L980,825 L978,825 L977,825 L972,825 L971,825 L967,825 L966,825 L959,825 L958,825 L952,825 L951,826 L944,825 L943,825 L937,825 L936,825 L929,825 L928,825 L922,825 L921,825 L914,825 L913,825 L907,825 L906,826" fill="none" stroke="black" /><path d="M905,827 L901,825 L900,825 L896,825 L895,825" fill="none" stroke="black" /><path d="M883,876 L880,871 L880,870 L882,861 L882,860 L884,851 L884,850 L886,842 L886,841 L888,836 L888,835 L889,831 L889,830" fill="none" stroke="black" /><path d="M1018,826 L1015,824 L1014,824 L1009,824 L1008,824 L1003,824 L1002,824 L997,824 L996,824 L989,824 L988,824" fill="none" stroke="black" /><path d="M993,876 L993,871 L993,870 L991,861 L991,860 L989,851 L989,850 L987,842 L987,841 L986,836 L985,835 L985,831 L985,830" fill="none" stroke="black" /><path d="M905,758 L904,753 L904,752 L904,746 L904,745 L904,739 L904,738 L904,732 L904,731 L904,726 L904,725 L904,719 L904,718 L904,712 L904,711 L904,705 L904,704" fill="none" stroke="black" /><path d="M533,847 L540,847 L541,847 L548,847 L549,847 L556,847 L557,847 L565,847 L566,847 L573,847 L574,847 L581,847 L582,847 L589,847 L590,847 L598,847 L599,847 L606,847 L607,847 L614,847 L615,847" fill="none" stroke="black" /><path d="M711,844 L708,847 L707,847 L702,847 L701,847 L696,847 L695,847 L690,847 L689,847 L683,847 L682,847 L677,847 L676,847 L671,847 L670,847 L665,847 L664,847 L656,847 L655,847 L648,847 L647,847 L640,847 L639,847 L632,847 L631,847 L623,847 L622,847" fill="none" stroke="black" /><path d="M619,877 L621,873 L621,872 L621,865 L621,864 L621,857 L621,856 L621,849 L621,848" fill="none" stroke="black" /><path d="M622,796 L621,792 L621,791 L621,788 L621,787 L621,781 L621,780 L621,775 L621,774 L621,768 L621,767 L621,762 L621,761 L621,755 L621,754 L621,749 L621,748 L621,742 L621,741 L621,736 L621,735 L621,729 L621,728 L621,723 L621,722 L621,716 L621,715" fill="none" stroke="black" /><path d="M620,806 L621,801 L621,800" fill="none" stroke="black" /><path d="M660,718 L661,722 L661,723 L659,728 L659,729 L657,733 L657,734 L654,743 L653,744 L650,753 L649,754 L645,763 L645,764 L640,773 L640,774 L635,783 L634,784 L629,792 L628,793" fill="none" stroke="black" /><path d="M621,846 L621,840 L621,839 L621,832 L621,831 L621,823 L621,822 L621,815 L621,814 L621,808 L621,807" fill="none" stroke="black" /><path d="M620,806 L619,806 L618,806 L613,808 L612,809 L605,811 L604,812 L597,813 L596,813 L589,811 L588,811 L581,807 L580,806 L575,802 L574,800 L570,796 L569,795 L565,790 L565,789 L562,785 L561,784 L558,779 L558,778 L555,773 L554,772 L552,767 L551,766 L549,762 L549,761 L546,755 L546,754 L544,750 L544,749 L542,744 L541,743 L539,738 L539,737 L537,731 L536,730 L534,724 L534,723 L532,718 L532,717" fill="none" stroke="black" /></svg>
